img/menu/m-icons-cat1.svg

<svg width="18" height="18" viewBox="0 0 18 18" fill="none" xmlns="http://www.w3.org/2000/svg">
<path fill-rule="evenodd" clip-rule="evenodd" d="M17.1879 6.14248L10.4392 0.517458C10.0368 0.18337 9.52679 0 8.99978 0C8.47277 0 7.96283 0.18337 7.56043 0.517458L0.811668 6.14248C0.454096 6.44222 0.19799 6.84173 0.0774109 7.28788C-0.0431677 7.73403 -0.0224887 8.20563 0.13669 8.63996C0.313814 9.1364 0.664672 9.55499 1.12681 9.8212L1.12681 15.75C1.12283 16.3407 1.35721 16.909 1.77874 17.3306C2.20027 17.7522 2.77468 17.9929 3.37641 18H14.6243C15.2259 17.9926 15.8 17.7518 16.2212 17.3302C16.6425 16.9087 16.8767 16.3405 16.8727 15.75V9.8212C17.3349 9.55499 17.6858 9.1364 17.8629 8.63996C18.0224 8.20566 18.0433 7.73396 17.9227 7.28774C17.8021 6.84152 17.5458 6.44203 17.1879 6.14248ZM14.6243 7.87496V15.75H12.3747V10.125H5.62597V15.75H3.37641L3.37641 7.87496H2.25105L8.99978 2.24994L15.7485 7.87496H14.6243Z" fill="#034899"/>
</svg>

<svg width="18" height="18" fill="none" xmlns="http://www.w3.org/2000/svg"><path fill-rule="evenodd" clip-rule="evenodd" d="M17.188 6.142L10.439.517A2.254 2.254 0 0 0 9 0c-.526 0-1.036.183-1.44.517L.812 6.142c-.358.3-.614.7-.735 1.146-.12.446-.1.918.06 1.352.177.496.528.915.99 1.181v5.929c-.004.59.23 1.159.652 1.58.421.422.996.663 1.597.67h11.248a2.297 2.297 0 0 0 1.597-.67c.421-.421.656-.99.652-1.58V9.821a2.23 2.23 0 0 0 .99-1.181c.16-.434.18-.906.06-1.352a2.265 2.265 0 0 0-.735-1.146zm-2.564 1.733v7.875h-2.25v-5.625H5.627v5.625h-2.25V7.875H2.251L9 2.25l6.748 5.625h-1.124z" fill="#034899"/></svg>
